X:42
T:Catren Haie. JMP.042
T:Sandy Duffâ€™s Reel,aka. JMP.042
M:2/4
L:1/8
Q:1/4=100
C:â€46â€¦Alex Duffâ€
S:John Miller MS. Perth, 1799.(for the fife)
R:.Misc.
O:Scotland
A:Perth
N:â€™Alexander Duffâ€™ written twice on this page. Page very faint,
N:probably
N:written in pencil, Which of course may be the Sandy Duff in the modern
N:title.
N:Also somewhat blotted and scribbled on. A visit to Perth is needed.
N:This is just some indication of what may be there
H:1799
Z:vmp.C. Graebe
K:G Major
â€œSee noteâ€EABA | eAcA | DEBG | dGBG | â€œillegible hereâ€zzzzzzz |!
AaAa | Aa g/f/d/c/ | BcBc | Be f/e/e/d/ | BedB |\
â€œillegible hereâ€zzzzzzz |]

